**kern	**kern	**dynam
*part1	*part1	*part1
*staff2	*staff1	*
*I"Piano	*	*
*clefF4	*clefG2	*
*k[f#]	*k[f#]	*
=1	=1	=1
4Fn 4G#X	4d 4b	.
4E 4G#	4e 4cc	.
=	=	=
*	*^	*
2AA 2A	4a	2c	.
.	4e	.	.
*	*v	*v	*
=	=	=
4.A 4.c	4.d#X 4.f#X 4.cc	.
8r;	8r;	.
=	=	=
*	*^	*
2G 2c	4.cc	2e 2g	.
.	(8cc	.	.
=	=	=	=
[2G 2B	8eeL	2fn 2g	<
.	8dd	.	.
.	8cc	.	.
.	8ddJ	.	.
*	*v	*v	*
=	=	=
2C 2G] 2c	2e) 2cc 2ee	[
=	=	=
*	*^	*
4.c 4.e	(8eeL	4.g	.
.	8ff#	.	.
.	8gg	.	.
8B 8d	8ddJ	8g	.
=	=	=	=
4A 4c	4cc	(8eL	.
.	.	8f#	.
4G 4B	4b	8g	.
.	.	8dJ)	.
*	*v	*v	*
=	=	=
*^	*	*
!	!	!LO:TX:a:i:t=ritard.	!
(8AL	4F#	4a	>
8B	.	.	.
8c#X	4E	4g)	.
8AJ)	.	.	.
*v	*v	*	*
=	=	=
*-	*-	*-
!!!system-decoration: {(s1,s2)}
